lib/brands/icons/jb-webstorm.svg

<svg xmlns="http://www.w3.org/2000/svg" fill="none" aria-hidden="true" viewBox="0 0 48 48"><g id="jb-webstorm-Icon"><g id="Group"><path id="Vector" fill="url(#paint0_linear_94_19078)" d="M10.8375 38.5125L6 9.76877L15 6.05627L20.6813 9.43127L25.9688 6.61877L36.8813 10.8375L30.75 42L10.8375 38.5125Z"/><path id="Vector_2" fill="url(#paint1_linear_94_19078)" d="M42.0004 18.2063L37.3316 6.73125L28.9504 6L15.9004 18.4875L19.3879 34.6313L25.9691 39.1875L42.0004 29.6812L38.0629 22.3125L42.0004 18.2063Z"/><path id="Vector_3" fill="url(#paint2_linear_94_19078)" d="M34.7998 16.4625L38.0623 22.3125L41.9998 18.2063L39.1311 11.0625L34.7998 16.4625Z"/><path id="Vector_4" fill="black" d="M35.25 12.75H12.75V35.25H35.25V12.75Z"/><path id="Vector_5" fill="white" d="M14.8871 31.0313H23.3246V32.4375H14.8871V31.0313ZM25.9121 23.6625L27.0934 22.2C27.9371 22.875 28.7809 23.325 29.8496 23.325C30.6934 23.325 31.1996 22.9875 31.1996 22.425C31.1996 21.9188 30.8621 21.6375 29.3434 21.2438C27.4871 20.7375 26.3059 20.2313 26.3059 18.375V18.3188C26.3059 16.6313 27.6559 15.5063 29.5121 15.5063C30.7565 15.501 31.9659 15.9174 32.9434 16.6875L31.8746 18.2625C31.1955 17.7318 30.3722 17.4182 29.5121 17.3625C28.7809 17.3625 28.3309 17.7 28.3309 18.2063C28.3309 18.825 28.7246 19.05 30.2996 19.4438C32.1559 19.95 33.2246 20.625 33.2246 22.2563C33.2246 24.1125 31.8184 25.1813 29.8496 25.1813C28.4045 25.1281 27.0186 24.5936 25.9121 23.6625ZM24.1121 15.675L22.7059 21.075L21.1309 15.675H19.5559L17.9809 21.075L16.5746 15.675H14.3809L17.0809 25.0125H18.8246L20.3434 19.6125L21.8621 25.0125H23.6059L26.3059 15.675H24.1121Z"/></g></g><defs><linearGradient id="paint0_linear_94_19078" x1="18.8784" x2="31.0915" y1="6.74815" y2="39.1975" gradientUnits="userSpaceOnUse"><stop offset="0.28" stop-color="#00CDD7"/><stop offset="0.94" stop-color="#2086D7"/></linearGradient><linearGradient id="paint1_linear_94_19078" x1="21.7701" x2="41.9188" y1="11.0203" y2="29.2926" gradientUnits="userSpaceOnUse"><stop offset="0.14" stop-color="#FFF045"/><stop offset="0.37" stop-color="#00CDD7"/></linearGradient><linearGradient id="paint2_linear_94_19078" x1="839.112" x2="927.469" y1="-3104.26" y2="-3186.31" gradientUnits="userSpaceOnUse"><stop offset="0.28" stop-color="#00CDD7"/><stop offset="0.94" stop-color="#2086D7"/></linearGradient></defs></svg>

<svg xmlns="http://www.w3.org/2000/svg" fill="none" aria-hidden="true" viewBox="0 0 48 48"><path fill="url(#a)" d="M10.838 38.513 6 9.769l9-3.713 5.681 3.375L25.97 6.62l10.912 4.219L30.75 42l-19.913-3.487Z"/><path fill="url(#b)" d="M42 18.206 37.33 6.731 28.95 6 15.9 18.488l3.487 16.143 6.582 4.556 16.03-9.506-3.937-7.369L42 18.206Z"/><path fill="url(#c)" d="m34.8 16.462 3.263 5.85L42 18.206l-2.869-7.143-4.331 5.4Z"/><path fill="#000" d="M35.25 12.75h-22.5v22.5h22.5v-22.5Z"/><path fill="#fff" d="M14.888 31.031h8.437v1.407h-8.437V31.03Zm11.025-7.368 1.18-1.463c.845.675 1.688 1.125 2.757 1.125.844 0 1.35-.337 1.35-.9 0-.506-.337-.788-1.856-1.181-1.856-.506-3.038-1.013-3.038-2.869v-.056c0-1.688 1.35-2.813 3.207-2.813a5.506 5.506 0 0 1 3.43 1.181l-1.068 1.575a4.287 4.287 0 0 0-2.362-.9c-.732 0-1.182.338-1.182.844 0 .619.394.844 1.97 1.238 1.855.506 2.924 1.181 2.924 2.812 0 1.857-1.406 2.925-3.375 2.925a6.486 6.486 0 0 1-3.937-1.518Zm-1.8-7.988-1.407 5.4-1.575-5.4h-1.575l-1.575 5.4-1.406-5.4h-2.194l2.7 9.337h1.744l1.519-5.4 1.519 5.4h1.743l2.7-9.337h-2.193Z"/><defs><linearGradient id="a" x1="18.878" x2="31.091" y1="6.748" y2="39.197" gradientUnits="userSpaceOnUse"><stop offset=".28" stop-color="#00CDD7"/><stop offset=".94" stop-color="#2086D7"/></linearGradient><linearGradient id="b" x1="21.77" x2="41.918" y1="11.02" y2="29.293" gradientUnits="userSpaceOnUse"><stop offset=".14" stop-color="#FFF045"/><stop offset=".37" stop-color="#00CDD7"/></linearGradient><linearGradient id="c" x1="839.112" x2="927.469" y1="-3104.26" y2="-3186.31" gradientUnits="userSpaceOnUse"><stop offset=".28" stop-color="#00CDD7"/><stop offset=".94" stop-color="#2086D7"/></linearGradient></defs></svg>
